client/public/img/game/shared/decals/smoke_explosion_decal.svg

<?xml version="1.0" encoding="UTF-8" standalone="no"?>
<svg
   width="48"
   height="54"
   viewBox="0 0 48 54"
   fill="none"
   version="1.1"
   id="svg2"
   xmlns="http://www.w3.org/2000/svg"
   xmlns:svg="http://www.w3.org/2000/svg">
  <path
     d="M12.187 20.1562L4.47998 10.7871L14.6797 17.3457L14.9844 17.1055L12.0801 9.22266L16.9688 15.8516L17.0601 15.8047L16.667 8.33398L19.3994 14.9219C19.5488 14.8809 19.6987 14.8438 19.8496 14.8105L20.2358 0.230469L23.5352 14.1816L24.9634 9.45508L25.5146 14.8066L25.8647 14.8867L32.7754 5.2793L31.0508 17.5234L31.2139 17.6602L38.918 12.8633L33.8882 19.9629L47.606 16.3262L35.8789 23.7637L42.5029 25.2188L35.8286 27.8301L35.8042 28.2305L35.7803 28.5059L46.3252 33.2617L35.6953 34.082L40.2417 37.3594L33.4985 35.4883L39.2646 44.002L29.9756 38.1934C29.8223 38.2793 29.667 38.3613 29.5098 38.4395L31.854 48.3457L24.999 40.0137L23.7417 51.7051L21.063 40.1719L15.2764 53.8633L16.8159 39.5352L12.3525 44.1445L15.6929 37.5488L15.4634 37.3711L5.41553 41.7871L11.7314 32.9883L6.92773 35.1582L11.1479 31.7363L10.998 31.334L0.436035 33.3555L10.2139 27.2656L10.2031 27.1191L3.47754 24.7422L10.4644 24.1934L2.65283 19.168L12.1064 20.3008L12.187 20.1562Z"
     fill="url(#paint0_radial_1608_396)"
     id="path1" />
  <defs
     id="defs2">
    <radialGradient
       id="paint0_radial_1608_396"
       cx="0"
       cy="0"
       r="1"
       gradientUnits="userSpaceOnUse"
       gradientTransform="translate(22.2749 26.9409) rotate(-48.3456) scale(24.7673 24.0332)">
      <stop
         stop-opacity="0.3"
         id="stop1" />
      <stop
         offset="1"
         stop-opacity="0.2"
         id="stop2" />
    </radialGradient>
  </defs>
</svg>

<svg xmlns="http://www.w3.org/2000/svg" width="48" height="54" fill="none"><path fill="url(#a)" d="M12.187 20.156 4.48 10.787l10.2 6.559.304-.24-2.904-7.883 4.889 6.629.091-.047-.393-7.471 2.732 6.588q.225-.061.45-.112L20.237.23l3.3 13.952 1.427-4.727.552 5.352.35.08 6.91-9.608-1.724 12.244.163.137 7.704-4.797-5.03 7.1 13.718-3.637-11.727 7.438 6.624 1.455-6.674 2.611-.025.4-.024.276 10.545 4.756-10.63.82 4.547 3.277-6.743-1.87 5.766 8.513-9.29-5.809q-.23.129-.465.247l2.344 9.906-6.855-8.332-1.257 11.691-2.679-11.533-5.787 13.691 1.54-14.328-4.463 4.61 3.34-6.596-.23-.178-10.047 4.416 6.315-8.799-4.803 2.17 4.22-3.422-.15-.402L.436 33.355l9.778-6.09-.01-.146-6.726-2.377 6.986-.549-7.811-5.025 9.453 1.133z"/><defs><radialGradient id="a" cx="0" cy="0" r="1" gradientTransform="rotate(-48.346 41.149 -11.343)scale(24.7673 24.0332)" gradientUnits="userSpaceOnUse"><stop stop-opacity=".3"/><stop offset="1" stop-opacity=".2"/></radialGradient></defs></svg>
